X:1
T:Let Us Now Go to Bethlehem
T:Old English Tune
T:Let Us Now Go to Bethlehem
T:Public Domain
T:Public Domain
C:Old English Tune
Z:Public Domain
%%score ( 1 2 ) ( 3 4 )
L:1/8
M:4/4
K:Bb
V:1 treble 
V:2 treble 
V:3 bass 
V:4 bass 
V:1
 F2 | B2 F2 [DB]2 [Fc]2 | [Fd]2 [Fd]2 [Fc]2 [EA]2 | [DB]2 [EG]2 [DF]2 [EA]2 | [DB]6 [DF]2 | %5
w: 1.~Let|now go to Beth-|To see the wond-|rous thing— Ma- ry|and Jo-|
w: 2.~Let|now go to Beth-|To see the wond-|rous thing— Ma- ry|and Jo-|
w: 3.~Let|then go to Beth-|Faith’s star shall guide|the way To Je-|sus cra-|
 [FB]2 [DF]2 [FB]2 [Fc]2 | [Fd]2 [Fd]2 [Fc]2 [FA]2 | [FB]2 [EG]2 [DF]2 [EA]2 | [DB]6 [DB]2 | %9
w: seph and with them|The Babe, our in-|fant King! For we|shall find|
w: seph and with them|The Babe, our in-|fant King— His Fa-|ther’s glo-|
w: dled in His Church,|This bright ap- pear-|ing day! There, light’s|true Light|
 [Fc]3 [Fd] [Fe]2 [Fd]2 | [Fc]6 [=EG]2 | [Fc]3 [FB] [FA]2 [=EG]2 | (F3 D C2) [Ff]2 | %13
w: on earth The Heav’n|of Heav’ns|in Him, The ho-|ly, * * ho-|
w: ry come To lift|our hearts|a- bove. First loved|by * * Him|
w: to Thee We sing|with glad|ac- cord. To met|it * * is|
 [Fd]2 [GB]2 [Gc]2 [FA]2 | [FB]2 (ED) [CF]2 [FB]2 | [EG]2 [B,E]2 D2 [EF]2 | [DB]6 |] %17
w: ho- ly Son, Be-|neath the * cher- u-|||
w: an- gel hosts We|car- ol * back His|||
w: cel- e- brate Thy|birth- day, * Je- sus|||
V:2
 F2 | B2 F2 x4 | x8 | x8 | x8 | x8 | x8 | x8 | x8 | x8 | x8 | x8 | F6 x2 | x8 | x2 G2 x4 | %15
w: us|le- hem,|||||||||||ly,||bim.|
w: us|le- hem,|||||||||||and||love.|
w: us|le- hem—|||||||||||to||Lord!|
 x4 D2 x2 | x6 |] %17
w: ||
w: ||
w: ||
V:3
 F,2 | B,2 [A,C]2 [G,B,]2 [F,A,]2 | [B,,B,]2 (D,E,) [F,A,]2 [F,C]2 | %3
 [G,B,]2 [E,B,]2 [F,D]2 [F,C]2 | [B,,B,]6 [B,,B,]2 | [B,,D]2 [B,,D]2 [D,B,]2 [C,A,]2 | %6
 [B,,B,]2 (D,E,) [F,A,]2 (F,E,) | [D,B,]2 [E,B,]2 [F,B,]2 [F,D]2 | [B,,B,]6 G,2 | %9
 [F,A,]3 [F,B,] [F,C]2 [F,B,]2 | ([F,A,]3 [G,B,] [A,C]2) [B,C]2 | [A,C]3 [G,E] C2 [C,B,]2 | %12
 (A,3 B, A,2) [F,A,]2 | B,2 [G,D]2 [E,E]2 (F,E,) | [D,B,]2 [E,B,]2 [F,A,]2 [D,B,]2 | %15
 [E,B,]2 [G,B,]2 [F,B,]2 [F,C]2 | [B,,B,]6 |] %17
V:4
 F,2 | B,2 x6 | x2 B,2 x4 | x8 | x8 | x8 | x2 B,2 x C2 x | x8 | x6 G,2 | x8 | x8 | x4 C2 x2 | %12
 F,6 x2 | B,2 x2 C2 x2 | x8 | x8 | x6 |] %17

